images/code.svg

<svg width="72" height="46" viewBox="0 0 72 46" fill="none" xmlns="http://www.w3.org/2000/svg">
<path d="M23.6912 18.344L7.70719 24.2L23.6912 30.008V36.008L0.843188 27.32V21.08L23.6912 12.392V18.344ZM40.8576 0.583997H47.5296L31.6896 45.8H25.0176L40.8576 0.583997ZM71.2224 21.08V27.32L48.3744 36.008V30.008L64.3584 24.2L48.3744 18.344V12.392L71.2224 21.08Z" fill="white"/>
</svg>

<svg xmlns="http://www.w3.org/2000/svg" width="72" height="46" fill="none"  xmlns:v="https://vecta.io/nano"><path d="M23.69 18.344L7.707 24.2l15.984 5.808v6L.843 27.32v-6.24l22.848-8.688v5.952zM40.858.584h6.672L31.7 45.8h-6.672L40.858.584zM71.222 21.08v6.24l-22.848 8.688v-6L64.358 24.2l-15.984-5.856v-5.952l22.848 8.688z" fill="#fff"/></svg>
